packages/components/bolt-icons/src/svgs/utility/close.svg

<?xml version="1.0" encoding="UTF-8" standalone="no"?>
<svg width="24px" height="24px" viewBox="0 0 24 24" version="1.1" xmlns="http://www.w3.org/2000/svg" xmlns:xlink="http://www.w3.org/1999/xlink">
    <!-- Generator: Sketch 46.2 (44496) - http://www.bohemiancoding.com/sketch -->
    <title>Icon/utility/Indigo/24px/Close</title>
    <desc>Created with Sketch.</desc>
    <defs></defs>
    <g id="Symbols" stroke="none" stroke-width="1" fill="none" fill-rule="evenodd">
        <g id="Icon/utility/Indigo/24px/Close">
            <path d="M13.4137051,11.9983124 L18.7096437,6.70379244 C19.0967854,6.31675443 19.0967854,5.67869177 18.7096437,5.29065366 C18.322502,4.90261556 17.6852687,4.90361566 17.2961263,5.29065366 L12.0001876,10.5851736 L6.70424898,5.29065366 C6.31710726,4.90361566 5.679874,4.90361566 5.29073155,5.29065366 C4.90258946,5.67769167 4.90358983,6.31575434 5.29073155,6.70379244 L10.5866702,11.9983124 L5.29073155,17.2928323 C4.90358983,17.6798704 4.90358983,18.317933 5.29073155,18.7059711 C5.48480259,18.8999902 5.74089634,19 5.99699008,19 C6.25308383,19 6.51017794,18.8999902 6.70324862,18.7059711 L11.9991873,13.4114512 L17.2951259,18.7059711 C17.489197,18.8999902 17.7452907,19 18.0013844,19 C18.2574782,19 18.5145723,18.8999902 18.707643,18.7059711 C19.0947847,18.3189331 19.0947847,17.6808705 18.707643,17.2928323 L13.4117043,11.9983124 L13.4137051,11.9983124 Z" id="Fill-1" fill="#1F2555"></path>
        </g>
    </g>
</svg>

<?xml version="1.0" encoding="utf-8"?>
<!-- Generator: Adobe Illustrator 24.0.3, SVG Export Plug-In . SVG Version: 6.00 Build 0)  -->
<svg version="1.1" id="Layer_1" xmlns="http://www.w3.org/2000/svg" xmlns:xlink="http://www.w3.org/1999/xlink" x="0px" y="0px"
	 viewBox="0 0 24 24" enable-background="new 0 0 24 24" xml:space="preserve">
<path id="Fill-1" fill-rule="evenodd" clip-rule="evenodd" d="M13.4,12l5.3-5.3c0.4-0.4,0.4-1,0-1.4s-1-0.4-1.4,0L12,10.6L6.7,5.3
	c-0.4-0.4-1-0.4-1.4,0s-0.4,1,0,1.4l5.3,5.3l-5.3,5.3c-0.4,0.4-0.4,1,0,1.4C5.5,18.9,5.7,19,6,19s0.5-0.1,0.7-0.3l5.3-5.3l5.3,5.3
	c0.2,0.2,0.5,0.3,0.7,0.3s0.5-0.1,0.7-0.3c0.4-0.4,0.4-1,0-1.4L13.4,12L13.4,12z"/>
</svg>
